X: 79
T: J'en ay dueil
N: Derived from Ock3007-Jen_ay_dueil.krn
C: Johannes Ockeghem
%%abc-version 2.0
%%abcx-abcm2ps-target-version 5.9.1 (29 Sep 2008)
%%abc-creator hum2abc beta
%%abcx-conversion-date 2019/02/17 07:26:16
%%abc-edited-by Jesse Rodin
%%abc-edited-by Chris Gage 06-25-2012
%%abcx-initial-encoding-date 2012/06/25/
%%humdrum-veritas 2238936186
%%humdrum-veritas-data 3397532910
%%linebreak <none>
%%barnumbers 0
L: 1/4
M: 2/1
Q: 1/2=120
%%staves [1 2 3 4]
V: 1 clef=treble
V: 2 clef=treble
V: 3 clef=treble-8
V: 4 clef=bass
K: F
[V:1] z8 | 
[V:2] D8 | 
[V:3] D8 | 
[V:4] D,6C,B,, | 
[V:1] z8 | 
[V:2] F8 | 
[V:3] A8 | 
[V:4] A,,4D,4 | 
[V:1] z8 | 
[V:2] G8 | 
[V:3] B8 | 
[V:4] G,,8 | 
[V:1] A8 | 
[V:2] A8- | 
[V:3] A4c4- | 
[V:4] z8 | 
[V:1] c8 | 
[V:2] A8 | 
[V:3] c2B2A4 | 
[V:4] z8 | 
[V:1] d8 | 
[V:2] B8 | 
[V:3] G8 | 
[V:4] z8 | 
[V:1] e8 | 
[V:2] A8 | 
[V:3] z8 | 
[V:4] z8 | 
[V:1] e4e4- | 
[V:2] G4A4 | 
[V:3] z8 | 
[V:4] z8 | 
[V:1] e2d2e4 | 
[V:2] =B4c4- | 
[V:3] z8 | 
[V:4] z8 | 
[V:1] f4g4- | 
[V:2] c2BAG2A2 | 
[V:3] z8 | 
[V:4] z8 | 
[V:1] g2fed4 | 
[V:2] B8 | 
[V:3] G8 | 
[V:4] G,,8 | 
[V:1] c8 | 
[V:2] A8 | 
[V:3] E8 | 
[V:4] A,,8- | 
[V:1] z8 | 
[V:2] F8 | 
[V:3] A8 | 
[V:4] A,,4D,4 | 
[V:1] c8 | 
[V:2] E4E4 | 
[V:3] G8 | 
[V:4] E,4C,4 | 
[V:1] f4f4 | 
[V:2] D8 | 
[V:3] F4A4- | 
[V:4] z4D,4 | 
[V:1] e8 | 
[V:2] C8 | 
[V:3] A2GFE4 | 
[V:4] A,,8 | 
[V:1] d8- | 
[V:2] F6G2 | 
[V:3] z4F4- | 
[V:4] B,,8 | 
[V:1] d4c4 | 
[V:2] A2B2A4- | 
[V:3] F2D2E4 | 
[V:4] z4A,,4 | 
[V:1] B8 | 
[V:2] A4G4 | 
[V:3] D4z4 | 
[V:4] D,4E,4 | 
[V:1] A4d4- | 
[V:2] A4F4 | 
[V:3] D8 | 
[V:4] F,4D,4 | 
[V:1] d2=B2^c4 | 
[V:2] E8 | 
[V:3] A8 | 
[V:4] A,,8 | 
[V:1] d6e2 | 
[V:2] D8 | 
[V:3] F6G2 | 
[V:4] B,,8 | 
[V:1] f4g4- | 
[V:2] z8 | 
[V:3] A4D4- | 
[V:4] A,,4G,,4 | 
[V:1] g2f2e2d2 | 
[V:2] G6FG | 
[V:3] D8 | 
[V:4] B,,8 | 
[V:1] !fermata!c8 | 
[V:2] !fermata!A8 | 
[V:3] !fermata!E8 | 
[V:4] !fermata!A,,8 | 
[V:1] z8 | 
[V:2] A8 | 
[V:3] z8 | 
[V:4] F,6D,2 | 
[V:1] z8 | 
[V:2] =B4B4 | 
[V:3] z8 | 
[V:4] D,4D,4 | 
[V:1] c6d2 | 
[V:2] c6=BA | 
[V:3] A6=B2 | 
[V:4] A,,8 | 
[V:1] e4e4 | 
[V:2] G4G4 | 
[V:3] c4c4 | 
[V:4] z8 | 
[V:1] f6ef | 
[V:2] F4A4 | 
[V:3] F8 | 
[V:4] D,4F,4 | 
[V:1] g4e4 | 
[V:2] G4c4- | 
[V:3] z8 | 
[V:4] E,4C,4 | 
[V:1] d8 | 
[V:2] c2=BAB4 | 
[V:3] G8 | 
[V:4] G,,8 | 
[V:1] c4e4 | 
[V:2] c6=Bc | 
[V:3] A4c4 | 
[V:4] z8 | 
[V:1] d4g4- | 
[V:2] d4=B4 | 
[V:3] =B4G4 | 
[V:4] z8 | 
[V:1] g4^f4 | 
[V:2] A8 | 
[V:3] D8 | 
[V:4] z8 | 
[V:1] g4z2c2 | 
[V:2] G6A2 | 
[V:3] E6D2- | 
[V:4] C,3D,E,2F,2- | 
[V:1] d2e2f3g | 
[V:2] =B2c2d2B2 | 
[V:3] D2G2A2=B2 | 
[V:4] F,2E,2D,2G,2 | 
[V:1] e8- | 
[V:2] c6=BA | 
[V:3] G4c4- | 
[V:4] C,8- | 
[V:1] e8 | 
[V:2] G4G4 | 
[V:3] c2=BAG4 | 
[V:4] C,8 | 
[V:1] z4c4 | 
[V:2] A4A4 | 
[V:3] F6C2 | 
[V:4] F,6E,2 | 
[V:1] d4d4 | 
[V:2] =B8 | 
[V:3] F4F4 | 
[V:4] D,4D,4 | 
[V:1] e6d2 | 
[V:2] c6=B2 | 
[V:3] G8 | 
[V:4] C,8 | 
[V:1] c4=B4 | 
[V:2] A4G4 | 
[V:3] A4=B4 | 
[V:4] z8 | 
[V:1] A4d4- | 
[V:2] A4F4 | 
[V:3] c4d4 | 
[V:4] z8 | 
[V:1] d2^c=Bc4 | 
[V:2] E8 | 
[V:3] A8 | 
[V:4] z4A,,4 | 
[V:1] d4e2f2- | 
[V:2] D4A4- | 
[V:3] B4c2A2- | 
[V:4] D,4C,4 | 
[V:1] f2edc3d | 
[V:2] A8- | 
[V:3] A2GFE4- | 
[V:4] D,4A,,2C,2- | 
[V:1] e2c2=B4 | 
[V:2] A4G4 | 
[V:3] E2F2G3F | 
[V:4] C,2D,2E,4 | 
[V:1] A4G3A | 
[V:2] A2F2E4 | 
[V:3] E4z2G2- | 
[V:4] A,,3B,,C,4 | 
[V:1] =B2c2B2d2- | 
[V:2] D2C2E2D2 | 
[V:3] G2F2G4 | 
[V:4] G,,2A,,2G,,2B,,2 | 
[V:1] dc=BAc2B2- | 
[V:2] F4E4 | 
[V:3] A4G4 | 
[V:4] A,,2C,4G,,2- | 
[V:1] B2A4^G2 | 
[V:2] D2C2=B,4 | 
[V:3] z4G4 | 
[V:4] G,,2A,,2E,4 | 
[V:1] A8 |]  
[V:2] A,8 |]  
[V:3] E8 |]  
[V:4] A,,8 |]  



